X: 108
T:Flowers of Edinburgh, The
M:4/4
L:1/8
R:Reel
O:Ireland
K:G
GE[|:D2DE G2GA|BABd cBAG|FGFE DEFG|AFcF E2GE|!
D2DE G2GA|BABd efge|dcBA GFGA|1B2G2 G2GE:|2B2G2 G2Bd|!
|:g2gf gbag|f2fe fagf|edef gfed|B2e2 e2ge|!
dBGB d2Bd|edef g2fe|dcBA GFGA|1B2G2 G2Bd:|2B2G2 G2 GE|]!
